Origami/24x24/apps/vim.svg

<svg width="24" height="24" version="1" xmlns="http://www.w3.org/2000/svg">
 <path d="m11.499695 1.500019c-0.550024 0-1.100416 0.2050106-1.5115731 0.6161574l-8.3719737 8.3729066c-0.82231375 0.822293-0.82114725 2.198408 0.0012 3.020702l8.3719737 8.372907c0.8223141 0.822294 2.1996551 0.82346 3.0219691 0.0012l8.371974-8.372906c0.822313-0.822294 0.822314-2.199587 0-3.021881l-8.371996-8.3729286c-0.411156-0.4111468-0.961549-0.6161574-1.511574-0.6161574z" style="opacity:.2"/>
 <path d="m11.499695 1.0000196c-0.550024 0-1.100416 0.2050106-1.5115731 0.6161574l-8.3719737 8.3729069c-0.82231375 0.8222931-0.82114725 2.1984081 0.0012 3.0207021l8.3719737 8.372906c0.8223141 0.822294 2.1996551 0.823461 3.0219691 0.0012l8.371974-8.372906c0.822313-0.822294 0.822314-2.199587 0-3.0218801l-8.371996-8.3729289c-0.411156-0.4111468-0.961549-0.6161574-1.511574-0.6161574z" style="fill:#159532"/>
 <path d="m11.5 1.0000196c-0.550024 0-1.100561 0.2050636-1.5117176 0.6162104l-8.3720623 8.3730394c-0.473073 0.4730606-0.66434725 1.1280796-0.5927729 1.7568346 0.0534742-0.461878 0.2451516-0.909223 0.5927729-1.256835l8.3720623-8.3730394c0.4111566-0.4111468 0.9616936-0.6162104 1.5117176-0.6162104 0.550025 0 1.100561 0.2050636 1.511718 0.6162104l8.371085 8.3730394c0.3485 0.34849 0.540641 0.797376 0.59375 1.260741 0.07221-0.629984-0.119935-1.286938-0.59375-1.7607406l-8.371085-8.3730394c-0.411157-0.4111467-0.961693-0.6162104-1.511718-0.6162104z" style="fill:#ffffff;opacity:.2"/>
 <path d="m3.9998813 4.4999982c-0.5538685 0-0.9997625 0.445894-0.9997625 0.999762 0 0.553869 0.445894 0.999763 0.9997625 0.999763h-2.38e-4v11.997152c3.414e-4 1.765246 2.1208347 2.664257 3.3898197 1.437159l13.947859-13.497772c0.383668-0.139515 0.658047-0.503237 0.658047-0.936302 0-0.553868-0.445894-0.999762-0.999763-0.999762h-4.998812c-0.553869 0-0.999763 0.445894-0.999763 0.999762 0 0.414145 0.249948 0.767566 0.607278 0.919704l-7.605615 7.3595818v-7.2795228h-5.75e-4c0.553868 0 0.999762-0.445894 0.999762-0.999763 0-0.553868-0.445894-0.999762-0.999762-0.999762z" style="fill-rule:evenodd;opacity:.2"/>
 <path d="m3.9998813 3.9999988c-0.5538685 0-0.9997625 0.445894-0.9997625 0.999762 0 0.553869 0.445894 0.999763 0.9997625 0.999763h-2.38e-4v11.997151c3.414e-4 1.765246 2.1208347 2.664257 3.3898197 1.437159l13.947859-13.497771c0.383668-0.139515 0.658047-0.503237 0.658047-0.936302 0-0.553868-0.445894-0.999762-0.999763-0.999762h-4.998812c-0.553869 0-0.999763 0.445894-0.999763 0.999762 0 0.414145 0.249948 0.767566 0.607278 0.919704l-7.605615 7.3595812v-7.2795222h-5.75e-4c0.553868 0 0.999762-0.445894 0.999762-0.999763 0-0.553868-0.445894-0.999762-0.999762-0.999762z" style="fill-rule:evenodd;fill:#e4e4e4"/>
 <path d="m4 4c-0.5538685 0-1 0.446132-1 1 0 0.0891008 0.0291094 0.1678946 0.0507812 0.25 0.1126401-0.4288838 0.4840225-0.75 0.9492188-0.75h3.9980469c0.4651958 0 0.8365787 0.3211162 0.9492187 0.75 0.0216719-0.0821054 0.0507813-0.1608992 0.0507813-0.25 0-0.553868-0.446132-1-1-1h-3.9980469zm11.996094 0c-0.553869 0-1 0.446132-1 1 0 0.1001059 0.015774 0.1960844 0.042968 0.2871094 0.099484-0.4476376 0.47858-0.7871094 0.957032-0.7871094h5c0.475581 0 0.852641 0.335722 0.955078 0.7792969 0.026202-0.0891253 0.044922-0.1812696 0.044922-0.2792969 0-0.553868-0.446131-1-1-1h-5zm-0.691406 2.2089844l-7.3066411 7.0703126v0.5l7.6054691-7.3593751c-0.114803-0.0488787-0.210922-0.1251672-0.298828-0.2109375z" style="fill-rule:evenodd;fill:#ffffff;opacity:.2"/>
</svg>

<svg xmlns="http://www.w3.org/2000/svg" width="24" height="24" version="1">
 <path style="opacity:0.2" d="m 11.499695,1.500019 c -0.550024,0 -1.100416,0.2050106 -1.5115731,0.6161574 L 1.6161482,10.489083 c -0.82231375,0.822293 -0.82114725,2.198408 0.0012,3.020702 l 8.3719737,8.372907 c 0.8223141,0.822294 2.1996551,0.82346 3.0219691,0.0012 l 8.371974,-8.372906 c 0.822313,-0.822294 0.822314,-2.199587 0,-3.021881 L 13.011269,2.1161764 C 12.600113,1.7050296 12.04972,1.500019 11.499695,1.500019 Z"/>
 <path style="fill:#159532" d="m 11.499695,1.0000196 c -0.550024,0 -1.100416,0.2050106 -1.5115731,0.6161574 L 1.6161482,9.9890839 c -0.82231375,0.8222931 -0.82114725,2.1984081 0.0012,3.0207021 l 8.3719737,8.372906 c 0.8223141,0.822294 2.1996551,0.823461 3.0219691,0.0012 l 8.371974,-8.372906 c 0.822313,-0.822294 0.822314,-2.199587 0,-3.0218801 L 13.011269,1.616177 C 12.600113,1.2050302 12.04972,1.0000196 11.499695,1.0000196 Z"/>
 <path style="opacity:0.2;fill:#ffffff" d="m 11.5,1.0000196 c -0.550024,0 -1.100561,0.2050636 -1.5117176,0.6162104 L 1.6162201,9.9892694 C 1.1431471,10.46233 0.95187285,11.117349 1.0234472,11.746104 1.0769214,11.284226 1.2685988,10.836881 1.6162201,10.489269 L 9.9882824,2.1162296 C 10.399439,1.7050828 10.949976,1.5000192 11.5,1.5000192 c 0.550025,0 1.100561,0.2050636 1.511718,0.6162104 l 8.371085,8.3730394 c 0.3485,0.34849 0.540641,0.797376 0.59375,1.260741 0.07221,-0.629984 -0.119935,-1.286938 -0.59375,-1.7607406 L 13.011718,1.61623 C 12.600561,1.2050833 12.050025,1.0000196 11.5,1.0000196 Z"/>
 <path d="m 3.9998813,4.4999982 c -0.5538685,0 -0.9997625,0.445894 -0.9997625,0.999762 0,0.553869 0.445894,0.999763 0.9997625,0.999763 l -2.38e-4,0 0,11.9971518 c 3.414e-4,1.765246 2.1208347,2.664257 3.3898197,1.437159 L 21.337322,6.4360622 c 0.383668,-0.139515 0.658047,-0.503237 0.658047,-0.936302 0,-0.553868 -0.445894,-0.999762 -0.999763,-0.999762 l -4.998812,0 c -0.553869,0 -0.999763,0.445894 -0.999763,0.999762 0,0.414145 0.249948,0.767566 0.607278,0.919704 l -7.605615,7.3595818 0,-7.2795228 -5.75e-4,0 c 0.553868,0 0.999762,-0.445894 0.999762,-0.999763 0,-0.553868 -0.445894,-0.999762 -0.999762,-0.999762 z" style="opacity:0.2;fill-rule:evenodd"/>
 <path style="fill:#cccccc;fill-rule:evenodd" d="m 3.9998813,3.9999988 c -0.5538685,0 -0.9997625,0.445894 -0.9997625,0.999762 0,0.553869 0.445894,0.999763 0.9997625,0.999763 l -2.38e-4,0 0,11.9971512 c 3.414e-4,1.765246 2.1208347,2.664257 3.3898197,1.437159 L 21.337322,5.9360628 c 0.383668,-0.139515 0.658047,-0.503237 0.658047,-0.936302 0,-0.553868 -0.445894,-0.999762 -0.999763,-0.999762 l -4.998812,0 c -0.553869,0 -0.999763,0.445894 -0.999763,0.999762 0,0.414145 0.249948,0.767566 0.607278,0.919704 l -7.605615,7.3595812 0,-7.2795222 -5.75e-4,0 c 0.553868,0 0.999762,-0.445894 0.999762,-0.999763 0,-0.553868 -0.445894,-0.999762 -0.999762,-0.999762 z"/>
 <path style="opacity:0.2;fill:#ffffff;fill-rule:evenodd" d="M 4 4 C 3.4461315 4 3 4.446132 3 5 C 3 5.0891008 3.0291094 5.1678946 3.0507812 5.25 C 3.1634213 4.8211162 3.5348037 4.5 4 4.5 L 7.9980469 4.5 C 8.4632427 4.5 8.8346256 4.8211162 8.9472656 5.25 C 8.9689375 5.1678946 8.9980469 5.0891008 8.9980469 5 C 8.9980469 4.446132 8.5519149 4 7.9980469 4 L 4 4 z M 15.996094 4 C 15.442225 4 14.996094 4.446132 14.996094 5 C 14.996094 5.1001059 15.011868 5.1960844 15.039062 5.2871094 C 15.138546 4.8394718 15.517642 4.5 15.996094 4.5 L 20.996094 4.5 C 21.471675 4.5 21.848735 4.835722 21.951172 5.2792969 C 21.977374 5.1901716 21.996094 5.0980273 21.996094 5 C 21.996094 4.446132 21.549963 4 20.996094 4 L 15.996094 4 z M 15.304688 6.2089844 L 7.9980469 13.279297 L 7.9980469 13.779297 L 15.603516 6.4199219 C 15.488713 6.3710432 15.392594 6.2947547 15.304688 6.2089844 z"/>
</svg>
